X:1
T:'TIS FINISHED
M:4/4
L:1/4
K:Bb
 F| B2 D3/2 F/2| d2 B3/2 A/2| G3/4 A/4 B/2G/2 F E| D3| B| A2 C3/2 c/2|\
 B2 D3/2 d/2| c3/4 B/4 A/2G/2 F =E| F3| F| B2 d3/2 d/2| e2 G3/2 G/2|\
 F3/4 G/4 A/2B/2 c d| c3| F| B2 D3/2 F/2| d2 B3/2 A/2| G3/4 A/4 B/2c/2 d c|\
 B3| F| d d3/4 c/4 B B| e e3/4 d/4 c c| B3/4 A/4 B/2c/2 d B| f3| F3/4 F/4|\
 B2 D F3/4 F/4| d2 B3/2 A/2| G3/4 A/4 B/2c/2 d c| B3||

